!!!COM:	Busnoys, Antoine
!!!CDT:	~1430///-1492/11/06
!!!OTL:	Je ne demande aultre degre
!!!AGN:	Song; Chanson
!!!SCT:	Bus3029
!!!SCA:	Bus3029
!!!voices:	4
**kern	**kern	**kern	**kern
*staff4	*staff3	*staff2	*staff1
*Ivox	*Ivox	*Ivox	*Ivox
*I"Bassus	*I"Contratenor	*I"Tenor	*I"Superius
*I'B	*I'Ct	*I'T	*I'S
*clefF4	*clefF4	*clefGv2	*clefG2
*k[b-]	*k[b-]	*k[b-]	*k[b-]
*M2/1	*M2/1	*M2/1	*M2/1
*met(C|)	*met(C|)	*met(C|)	*met(C|)
=1-	=1-	=1-	=1-
!	!	!	!LO:TX:Z=43:t=Rondeau
1.F	0r	1.F	0r
2E	.	2G	.
=2	=2	=2	=2
1F	0r	1A	0r
1G	.	1B-	.
=3	=3	=3	=3
1E	0r	1G	0r
1r	.	1F	.
=4	=4	=4	=4
1.A	0r	1r	0r
.	.	1c	.
4G	.	.	.
4F	.	.	.
=5	=5	=5	=5
4G	0r	1B-	0r
4F	.	.	.
4E	.	.	.
4D	.	.	.
2.C	.	1A	.
4D	.	.	.
=6	=6	=6	=6
2E	0r	0G	0r
1F	.	.	.
2E	.	.	.
=7	=7	=7	=7
1F	1FF	1F	0r
2E	2C	2G	.
2C	2AA	[2A	.
=8	=8	=8	=8
2F	2FF	2A]	0r
2E	1C	4G	.
.	.	4A	.
1D	.	4B-	.
.	.	4A	.
.	2BBni	4G	.
.	.	4F	.
=9	=9	=9	=9
2.C	1C	2.E	0r
4AA	.	4C	.
2BB-	2GG	2D	.
[2C	[2AA	[2C	.
=10	=10	=10	=10
2C]	4AA]	2C]	0r
.	4BB-	.	.
2AA	2C	1F	.
1GG	2D	.	.
.	2BB-	2E	.
=11	=11	=11	=11
0FF	1C	1F	1.c
.	1F	1r	.
.	.	.	2d
=12	=12	=12	=12
0r	1E	1G	1e
.	1D	1A	1f
=13	=13	=13	=13
0r	1G	1B-	1d
.	1A	[1c	1c
=14	=14	=14	=14
0r	0F	1c]	1r
.	.	1A	[1f
=15	=15	=15	=15
0C	0c	0G	2f]
.	.	.	2e
.	.	.	2e
.	.	.	2d
=16	=16	=16	=16
1D	0A	1F	1f
1AA	.	2C	2e
.	.	[2F	2c
=17	=17	=17	=17
1BB-	0F	2F]	1d
.	.	2G	.
2FF	.	1A	2.c
2F	.	.	.
.	.	.	4A
=18	=18	=18	=18
2E	0r	2G	2B-
2C	.	2E	1c
1D	.	1F	.
.	.	.	4B-
.	.	.	4A
=19	=19	=19	=19
[0E	0C	1E	0G
.	.	1r	.
=20	=20	=20	=20
0E]	1c	1.C	1r
.	2G	.	1g
.	[2B-	2D	.
=21	=21	=21	=21
0r	2B-]	1E	1g
.	2c	.	.
.	2A	1F	1a
.	4G	.	.
.	4F	.	.
=22	=22	=22	=22
0EE	0E	1G	1.b-
.	.	1G	.
.	.	.	4a
.	.	.	4g
=23	=23	=23	=23
[0FF	2r	2F	0a
.	2C	4E	.
.	.	4D	.
.	2.F	2C	.
.	.	[2F	.
.	4G	.	.
=24	=24	=24	=24
0FF]	2.A	4F]	1a
.	.	4G	.
.	.	2.A	.
.	4B-	.	.
.	2c	.	[1a
.	.	4B-	.
.	[2F	[2c	.
=25	=25	=25	=25
1r	4F]	2c]	2a]
.	4E	.	.
.	2D	2d	2f
1C	1C	1e	1g
=26	=26	=26	=26
2D	0r	1f	2f
2F	.	.	1cc
2C	.	2e	.
[2G	.	4d	4b-
.	.	4c	4a
=27	=27	=27	=27
4G]	1B-	1d	4b-
4F	.	.	4a
2G	.	.	4g
.	.	.	4f
2.A	2.c	2c	2.e
.	.	[2c	.
4G	4B-	.	4f
=28	=28	=28	=28
2E	2G	2c]	2g
2F	1.c	2A	1f
1C	.	1G	.
.	.	.	2e
=29	=29	=29	=29
1.D	1A	1FNy	2.f
.	.	.	4g
.	2F	1r	2a
[2BB-	[2B-	.	[2d
=30	=30	=30	=30
2BB-]	4B-]	0r	2d]
.	4A	.	.
4AA	1F	.	4c
4GGNy	.	.	4B-
1FF	.	.	2.d
.	4E	.	.
.	4D	.	4c
=31	=31	=31	=31
0r	1CNy	0r	1ANy
.	1r	.	1r
=32	=32	=32	=32
1F	1FF	0c	0r
2E	1AA	.	.
[2F	.	.	.
=33	=33	=33	=33
2F]	1BB-	1d	0r
2G	.	.	.
1A	[1AA	1c	.
=34	=34	=34	=34
2F	0AA]	1A	0c
2.c	.	.	.
.	.	1F	.
4B-	.	.	.
[2A	.	.	.
=35	=35	=35	=35
2A]	1r	1B-	1d
2G	.	.	.
1A	[1F	1A	1c
=36	=36	=36	=36
0r	2F]	2F	1A
.	2.A	2.c	.
.	.	.	1F
.	4G	4B-	.
.	2F	[2A	.
=37	=37	=37	=37
1r	2D	2A]	1B-
.	2E	2G	.
[1AA	2C	2A	1A
.	[2F	2F	.
=38	=38	=38	=38
0AA]	2F]	1c	2F
.	2E	.	2.c
.	1E	1A	.
.	.	.	4B-
.	.	.	[2A
=39	=39	=39	=39
0r	0r	1B-	2A]
.	.	.	2G
.	.	2A	2A
.	.	[2B-	[2d
=40	=40	=40	=40
0r	0r	4B-]	4d]
.	.	4A	4c
.	.	4G	4B-
.	.	4F	4A
.	.	1G	1B-
=41	=41	=41	=41
2.AA	2.C	1A	1.A
4BB-	4D	.	.
2C	2E	1r	.
[2D	2F	.	[2F
=42	=42	=42	=42
4D]	2.D	0r	4F]
4E	.	.	4G
2F	.	.	2A
.	4C	.	.
2G	2BB-	.	2B-
[2A	[2AA	.	[2c
=43	=43	=43	=43
2A]	2AA]	0r	2c]
4G	2BB-	.	4B-
4F	.	.	4A
1E	1C	.	1G
=44	=44	=44	=44
2F	0FF	0F	1F
2.D	.	.	.
.	.	.	1r
4C	.	.	.
[2AA	.	.	.
=45	=45	=45	=45
4AA]	0r	1E	0r
4BB-	.	.	.
1C	.	.	.
.	.	1C	.
[2FF	.	.	.
=46	=46	=46	=46
4FF]	0r	1F	0r
4GG	.	.	.
2.AA	.	.	.
.	.	1E	.
4BB-	.	.	.
2C	.	.	.
=47	=47	=47	=47
4D	0r	0D	0f
4C	.	.	.
4BBni	.	.	.
4AA	.	.	.
2.BBni	.	.	.
4AA	.	.	.
=48	=48	=48	=48
1C	0AA	2.C	1e
.	.	4D	.
1r	.	2E	1c
.	.	[2F	.
=49	=49	=49	=49
0r	1FF	4F]	1f
.	.	4G	.
.	.	4A	.
.	.	4B-	.
.	1C	2G	1e
.	.	[2c	.
=50	=50	=50	=50
1r	0GG	2c]	0d
.	.	4Bni	.
.	.	4A	.
1G	.	1Bni	.
=51	=51	=51	=51
2A	0r	2.c	1.c
2.A	.	.	.
.	.	4d	.
.	.	2e	.
4G	.	.	.
2F	.	2f	2d
=52	=52	=52	=52
2E	2G	2c	2e
2D	2A	2d	2f
2E	2G	2B-	2g
2C	2E	[2c	[2a
=53	=53	=53	=53
1F	2A	4c]	4a]
.	.	4F	4f
.	2.c	2A	1f
1C	.	1G	.
.	4B-	.	.
.	2G	.	2e
=54	=54	=54	=54
1r	1A	1F	2f
.	.	.	2.a
1F	1D	1r	.
.	.	.	4g
.	.	.	2a
=55	=55	=55	=55
2.G	1.d	0r	2.b-
4A	.	.	4a
2B-	.	.	4f
.	.	.	4g
2c	[2c	.	[2a
=56	=56	=56	=56
1A	1c]	1F	4a]
.	.	.	4g
.	.	.	4f
.	.	.	4e
2B-	[1B-	2.G	1d
[2G	.	.	.
.	.	4A	.
=57	=57	=57	=57
2G]	2B-]	2B-	1r
2A	1.A	2c	.
1F	.	1A	1f
=58	=58	=58	=58
2E	1.G	2B-	2.g
1E	.	1G	.
.	.	.	4a
.	.	.	2b-
4D	[2F	2A	2cc
4E	.	.	.
=59	=59	=59	=59
1F	1F]	1F	1a
1r	2.G	2E	2b-
.	.	[2E	[2g
.	4A	.	.
=60	=60	=60	=60
0r	2B-	2E]	2g]
.	2c	4D	2a
.	.	4E	.
.	2A	2F	1f
.	2F	[2A	.
=61	=61	=61	=61
1r	1c	2A]	2e
.	.	4G	1e
.	.	4F	.
1C	2r	1G	.
.	2c	.	4d
.	.	.	4e
=62	=62	=62	=62
2D	2B-	2F	2f
2.F	1A	2.c	2.a
4E	.	4d	4b-
4C	4G	[2e	[2cc
4D	4F	.	.
=63	=63	=63	=63
2.E	1G	4e]	4cc]
.	.	4d	4b-
.	.	4c	4a
4D	.	4B-	4g
2BB-	1F	2d	2b-
[2F	.	[2c	[2a
=64	=64	=64	=64
2F]	1r	4c]	4a]
.	.	4A	4f
2BB-	.	2B-	2.g
1C	[1c	1G	.
.	.	.	4d
.	.	.	2e
=65	=65	=65	=65
[0FFl	2c]	[0Fl	[0fl
.	2.A	.	.
.	4B-	.	.
.	2c	.	.
=66	=66	=66	=66
0FF]	0Cl	0F]	0f]
==	==	==	==
*-	*-	*-	*-
!!!RDF**kern: l=long note in original notation
!!!RDF**kern: i=editorial accidental
!!!RDF**kern: N=signum congruentiae
!!!ENC:	Chris Gage 04-20-2015
!!!END:	2015/05/05/
!!!EED:	Jesse Rodin
!!!EEV:	2015/09/21/
!!!ONB:	Translated from MusicXML and edited on 2015/09/21/ by Craig Sapp
!!muse2ps: C^@{COM}^i2I150v85,85,85,150Q16
